X:1
T:Land of Hope and Glory (theme)
C:Edward Elgar
M:4/4
L:1/4
Q:1/4=80
K:D
D3 E | ^F2 G2 | A2 B2 | A4 | A3 B | c2 d2 | e2 ^F2 | G4 | A3 B | c2 d2 | e3 d | c4 | B3 A | G2 ^F2 | D4 |]
